X: 1
T: Ramnee Ceilidh
M: 4/4
L: 1/8
K: Dmaj
|:"G"dBBd "D"~A2BA|feef "A"e2de|"D"faaf "A"e2fe|"Bm"d2ed BdBA|
"G"dBBd "D"~A2BA|feef "A"e2de|"D"faaf "A"e2fe|1 "G"dBAB "D"d4:|2 "G" dBAB d3e||
|:"D"~f3A Bd"A"e2|-ed~d2 edBd|"Bm"~f3A "G"Bde2|-edfe d3e|
"D"~f3A Bd"Em"e2|-ed~d2 edBd|"Bm"faaf "A"e2fe|1"G"dBAB d2de:|2 "G"dBAB "D"d4|] 
